X: 122
T: Geary Owen
R: jig
M: 6/8
L: 1/8
Z: 2011 John Chambers <jc:trillian.mit.edu>
B: Abraham Mackintosh "A Collection of Strathspeys, Reels, Jigs &c.", Newcastle, after 1797, p.12
F: http://imslp.info/files/imglnks/usimg/a/a8/IMSLP80796-PMLP164326-Abraham_Mackintosh_coll.pdf
K: G
V: 1
g/f/ |\
edc BAG | B>cB Bgf | edc BAG | A>BA Agf |\
edc BAG | B>cB B2d | def g2B | A>BA A2 :: c |
|:\
(B//c//d3/2B) (B//c//d3/2B) | (B//c//d3/2B) d2g |\
(c//d//e3/2c) (c//d//e3/2c) | (c//d//e3/2c) e2f |\
g2A {ga}b2a | g2e {e}d2B | def g2B | A>BA A2 :|
V: 2 clef=bass middle=d
z |\
[g3G3] [g3G3] | [g3G3] [g3G3] | [g3G3] [g3G3] | [d3D3] [d3D3] |\
[g3G3] [g3G3] | [g3G3] [g3G3] | f2d e2^c | d3 D2 :: z |
[d'3b3g3] [d'3b3g3] | [d'3b3g3] [d'3b3g3] |\
[e'3c'3g3] [e'3c'3g3] | [e'3c'3g3] [e'3c'3g3] |\
b2a g2f | e2c' b2g | f2d e2^c | d3 D2 :|

%%sep 2 1 500

